!!!!SEGMENT: pl-gd--ee-1638--008-016_marenzio-luca--il-quarto-libro-de-madrigalia-a-sei-voci-lasso-e-conosco-hor-ben.krn
!!!cenid: 15xx:878
!!!COM: Marenzio, Luca
!!!COM-rismID: pe30003955
!!!CDT: ~1553-1599/08/22
!!!CNT: Italian
!!!GTL: Il Quarto Libro de madrigalia a sei voci
!!!OTL: Lasso e conosco hor ben
!!!OMV: 016
!!!PDT: 1587
!!!AGN:
!!!SMS-siglum: PL-GD
!!!SMS-shelfmark: Ee 1638
!!!SMS-variant:
!!!SMS-altvar:
!!!SMS-shelfwork: 008-016 G
!!!NIFC-rismSourceID: 1001202747
!!!NIFC-rismChildID: 990039254
!!!NIFC-islandoraID: pl-gd:57883
!!!URL-pdf-islandora: https://repozytorium.nifc.pl/islandora/object/pl-gd%3A57883/datastream/PDF/view
!!!URL-scan: https://polish.musicsources.pl/pl/lokalizacje/galeria/klocki-introligatorskie/655 @EN{Scan on Polish Music Sources Website} @PL{Skany w portalu Dziedzictwo Muzyki Polskiej w otwartym dostępie}
!!!ONB-nifc: UWAGA: zbiór na stronach: Canto: s. 706-716, Alto: s. 554-564, Tenore: s. 402-412, Basso: s.250-260, Quinto: s. 98-108, Sesto: s. 16-26. Uwaga: utwory podzielone wg tytułów w spisach treści dostępnych na końcu każdej księgi głosowej.
!!!AIN: 2 alto 1 bass 1 soprn 2 tenor
!!!key: F
**kern	**text	**kern	**text	**kern	**text	**kern	**text	**kern	**text	**kern	**text
*part6	*part6	*part5	*part5	*part4	*part4	*part3	*part3	*part2	*part2	*part1	*part1
*staff6	*staff6	*staff5	*staff5	*staff4	*staff4	*staff3	*staff3	*staff2	*staff2	*staff1	*staff1
*I"SESTO	*	*I"QVINTO	*	*I"BASSO	*	*I"TENORE	*	*I"ALTO	*	*I"CANTO	*
*I'V 6	*	*I'V 5	*	*I'B	*	*I'T	*	*I'A	*	*I'S	*
*Itenor	*	*Ialto	*	*Ibass	*	*Itenor	*	*Ialto	*	*Isoprn	*
*ICvox	*	*ICvox	*	*ICvox	*	*ICvox	*	*ICvox	*	*ICvox	*
*clefC4	*	*clefC3	*	*clefF4	*	*clefC4	*	*clefC3	*	*clefC1	*
*k[b-]	*	*k[b-]	*	*k[b-]	*	*k[b-]	*	*k[b-]	*	*k[b-]	*
*F:	*	*F:	*	*F:	*	*F:	*	*F:	*	*F:	*
*M2/1	*	*M2/1	*	*M2/1	*	*M2/1	*	*M2/1	*	*M2/1	*
*met(C)	*	*met(C)	*	*met(C)	*	*met(C)	*	*met(C)	*	*met(C)	*
=1-	=1-	=1-	=1-	=1-	=1-	=1-	=1-	=1-	=1-	=1-	=1-
*xywh-#24:1065,608,3359,815	*	*xywh-#106:1101,615,3379,808	*	*xywh-#258:1474,600,3343,884	*	*xywh-#410:1426,484,3310,912	*	*xywh-#562:1264,575,3348,852	*	*xywh-#714:1374,536,3361,889	*
!LO:TX:a:t=Seconda parte.	!	!LO:TX:a:t=Seconda parte.	!	!LO:TX:a:t=Seconda parte.	!	!LO:TX:a:t=Seconda parte.	!	!LO:TX:a:t=Seconda parte.	!	!LO:TX:a:t=Seconda parte.	!
0r	.	2r	.	0r	.	0r	.	1d	LAſ-	2r	.
.	.	2.f\	LAſ-	.	.	.	.	.	.	2.a\	LAſ-
.	.	.	.	.	.	.	.	1c	-ſo	.	.
.	.	8e\	ſo e	.	.	.	.	.	.	8g/	ſo e
.	.	8d\	co-	.	.	.	.	.	.	8f/	co-
.	.	4e\	-noſ-	.	.	.	.	.	.	4g/	-noſ-
.	.	4c/	-co	.	.	.	.	.	.	4a\	-co
=2-	=2-	=2-	=2-	=2-	=2-	=2-	=2-	=2-	=2-	=2-	=2-
2r	.	4d\	hor	1D	LAſ-	2r	.	0r	.	4f/	hor
.	.	4e\	ben	.	.	.	.	.	.	4g/	be(n)
2.A/	LAſ-	4f\	che	.	.	2.F/	LAſ-	.	.	4.a\	che
.	.	4F/	quant'i	.	.	.	.	.	.	.	.
.	.	.	.	.	.	.	.	.	.	8b-\	qua(n)t'i
.	.	2c/	diſ-	1C	-ſo	.	.	.	.	2cc\	diſ-
8G/	ſo e	.	.	.	.	8E/	ſo e	.	.	.	.
8F/	co-	.	.	.	.	8D/	co-	.	.	.	.
4G/	-noſ-	2c/	-ſi	.	.	4E/	-no-	.	.	2cc\	-ſi
4A/	-co	.	.	.	.	4C/	-ſco	.	.	.	.
=3-	=3-	=3-	=3-	=3-	=3-	=3-	=3-	=3-	=3-	=3-	=3-
4F/	hor	00r	.	0r	.	4D/	hor	2r	.	2r	.
4G/	be(n)	.	.	.	.	4E/	be(n)	.	.	.	.
4.A/	che	.	.	.	.	4F/	che	2.f\	Laſ-	2.a\	Laſ-
.	.	.	.	.	.	4D/	quant'i	.	.	.	.
8B-\	quant'i	.	.	.	.	.	.	.	.	.	.
2c\	diſ-	.	.	.	.	2C/	diſ-	.	.	.	.
.	.	.	.	.	.	.	.	8e\	ſo e	8g/	ſo e
.	.	.	.	.	.	.	.	8d\	co-	8f/	co-
2c\	-ſi	.	.	.	.	2C/	-ſi	4e\	-noſ-	4g/	-noſ-
.	.	.	.	.	.	.	.	4c/	co hor	4a\	-c'hor
!	!	!	!	!	!	!	!	!	!	!LO:SIC:v:t=custos f	!
!	!	!	!	!	!	!	!	!	!	!LO:LB:g=original	!
=4-	=4-	=4-	=4-	=4-	=4-	=4-	=4-	=4-	=4-	=4-	=4-
*	*	*	*	*	*	*	*	*	*	*xywh-#714:1313,1266,3422,661	*
0r	.	.	.	1r	.	1r	.	4d\	be(n)	4f/	ben
.	.	.	.	.	.	.	.	4e\	che	4g/	che
.	.	.	.	.	.	.	.	4f\	quan-	4.a\	quan-
.	.	.	.	.	.	.	.	4d\	-t'i	.	.
.	.	.	.	.	.	.	.	.	.	8b-\	to i
.	.	.	.	2r	.	2r	.	2c/	diſ-	2cc\	diſ-
.	.	.	.	4r	.	4r	.	2c/	-ſi	2g/	-ſi
.	.	.	.	4C/	Fù	4c\	Fù	.	.	.	.
!	!	!	!	!	!	!LO:SIC:v:t=custos A	!	!	!	!	!
!	!	!	!	!	!	!LO:LB:g=original	!	!	!	!	!
=5-	=5-	=5-	=5-	=5-	=5-	=5-	=5-	=5-	=5-	=5-	=5-
*	*	*	*	*	*	*xywh-#410:1356,1196,3379,746	*	*	*	*	*
1r	.	2r	.	4.F\	vo-	4.A/	vo-	1r	.	2r	.
.	.	.	.	8G\	-ce	8B-\	ce d'huom	.	.	.	.
.	.	4r	.	2A\	d'huom	2c\	.	.	.	4r	.
.	.	4c/	Fù	.	.	.	.	.	.	4cc\	Fu
!	!	!LO:SIC:v:t=custos f	!	!	!	!	!	!	!	!	!
!	!	!LO:LB:g=original	!	!	!	!	!	!	!	!	!
*	*	*xywh-#106:1108,1293,3400,649	*	*	*	*	*	*	*	*	*
2r	.	4.f\	vo-	2r	.	1r	.	2r	.	4.a\	vo-
.	.	8g\	-ce	.	.	.	.	.	.	8b-\	-ce
2A/	cui	2a\	d'huom	4r	.	.	.	4r	.	2cc\	d'huom
*	*	*	*	*	*ij	*	*	*	*	*	*
.	.	.	.	4F\	Fù	.	.	4c/	Fù	.	.
!	!	!	!	!	!	!	!	!LO:SIC:v:t=custos f	!	!	!
!	!	!	!	!	!	!	!	!LO:LB:g=original	!	!	!
=6-	=6-	=6-	=6-	=6-	=6-	=6-	=6-	=6-	=6-	=6-	=6-
*	*	*	*	*	*	*	*	*xywh-#562:1248,1243,3402,721	*	*	*
2d\	ne	2r	.	4.D/	vo-	2r	.	4.f\	vo-	2r	.
.	.	.	.	8E\	-ce	.	.	8g\	-ce	.	.
2c\	tor-	4r	.	2F\	d'huom	4r	.	2a\	d'huo(m)	4r	.
*	*	*	*	*	*Xij	*	*	*	*	*	*
.	.	4f\	Fù	.	.	4F/	Fù	.	.	4a\	cui
!LO:SIC:v:t=custos B-	!	!	!	!	!	!	!	!	!	!	!
!LO:LB:g=original	!	!	!	!	!	!	!	!	!	!	!
*xywh-#24:1023,1293,3393,642	*	*	*	*	*	*	*	*	*	*	*
1.B-	-men-	4.d\	vo-	1BB-	cui	4.B-\	vo-	1f	cui	1.dd	ne
.	.	8e\	-ce	.	.	8c\	-ce	.	.	.	.
.	.	4f\	d'ho(m)	.	.	4d\	d'huo(m)	.	.	.	.
.	.	4d\	cui	.	.	4B-\	cui	.	.	.	.
=7-	=7-	=7-	=7-	=7-	=7-	=7-	=7-	=7-	=7-	=7-	=7-
.	.	2B-/	ne	1.E-X	ne	2G/	ne	1g	ne	.	.
2A/	ti aſ-	2c/	tor-	.	.	2A/	tor-	.	.	1cc	tor-
1.G	-trin-	1d	-men-	.	.	1B-	-men-	1g	tor-	.	.
.	.	.	.	2D/	tor-	.	.	.	.	1b-\	-men-
!	!	!	!	!LO:SIC:v:t=custos C	!	!	!	!	!	!	!
!	!	!	!	!LO:LB:g=original	!	!	!	!	!	!	!
=8-	=8-	=8-	=8-	=8-	=8-	=8-	=8-	=8-	=8-	=8-	=8-
*	*	*	*	*xywh-#258:1435,1228,3390,775	*	*	*	*	*	*	*
.	.	2g\	ti aſ-	1C	-men-	1c	ti aſ-	2e\	-men-	.	.
2A/	-ga	1f	-trin-	.	.	.	.	2f\	ti aſ-	1a	ti aſ-
2r	.	.	.	1C	ti aſ-	2c\	-trin-	2.g\	-trin-	.	.
2G/	aſ-	2e\	-ga	.	.	2c\	-ga	.	.	1g\	-trin-
.	.	.	.	.	.	.	.	4a\	.	.	.
=9-	=9-	=9-	=9-	=9-	=9-	=9-	=9-	=9-	=9-	=9-	=9-
1.d	-trin-	2r	.	1D	-trin-	2r	.	2b-\	.	.	.
.	.	2d\	aſ-	.	.	2A/	aſ-	2a\	-ga	2f#X/	-ga
.	.	2f\	-trin-	1AA	-ga	2A/	-trin-	1r	.	1r	.
2c#X\	-ga	2e\	-ga	.	.	2A/	-ga	.	.	.	.
=10-	=10-	=10-	=10-	=10-	=10-	=10-	=10-	=10-	=10-	=10-	=10-
00r	.	4.f#X\	Giu-	4.D/	Giu-	4.A/	Giu	4.d\	Giu-	4.a\	Giu-
.	.	8f#\	-di-	8D/	-di-	8A/	di-	8d\	-di-	8a\	-di-
!	!	!LO:SIC:v:t=custos f#	!	!	!	!	!	!	!	!LO:SIC:v:t=custos a	!
!	!	!LO:LB:g=original	!	!	!	!	!	!	!	!LO:LB:g=original	!
*	*	*xywh-#106:1135,1825,3345,670	*	*	*	*	*	*	*	*xywh-#714:1351,1799,3384,707	*
.	.	4f#\	ce in	4D/	ce in	2d\	ce in	4d\	ce in-	4a\	ce in
!	!	!	!	!	!	!	!	!	!	!LO:N:acc=#	!
.	.	2g\	giu-	2G\	giu-	.	.	2d\	-giu-	2bn\	giu-
!	!	!	!	!	!	!LO:SIC:v:t=custos G	!	!	!	!	!
!	!	!	!	!	!	!LO:LB:g=original	!	!	!	!	!
*	*	*	*	*	*	*xywh-#410:1356,1714,3359,760	*	*	*	*	*
.	.	.	.	.	.	4.G/	giu-	.	.	.	.
.	.	4g\	ſto a	4C/	ſto a	.	.	2e\	ſto a	4cc\	ſto a
.	.	.	.	.	.	8G/	ſto a	.	.	.	.
.	.	4g\	tra-	4c\	tra-	4C/	tra-	.	.	4.cc\	tra-
.	.	4a\	-ui-	4F\	-ui-	4c\	-ui-	4.f\	tra-	.	.
.	.	.	.	.	.	.	.	.	.	8a\	-ui-
=11-	=11-	=11-	=11-	=11-	=11-	=11-	=11-	=11-	=11-	=11-	=11-
.	.	2d\	-ar	4B-\	-ar	4.B-\	-ar	.	.	4.dd\	-ar
.	.	.	.	.	.	.	.	8d\	-ui-	.	.
.	.	.	.	4G\	dal	.	.	4g\	-ar	.	.
.	.	.	.	.	.	8G/	dal	.	.	8b-y\	dal
.	.	2a\	à	4A\	ve-	4c\	ve-	4e\	del-	4cc\	ve-
.	.	.	.	8F\	-ro	8c\	-ro	4f\	-ve-	4a\	-ro
.	.	.	.	8D/	à	8d\	à	.	.	.	.
!	!	!	!	!	!	!	!	!LO:SIC:v:t=custos d	!	!LO:N:acc=#	!
!	!	!	!	!	!	!	!	!LO:LB:g=original	!	!	!
*	*	*	*	*	*	*	*	*xywh-#562:1225,1796,3409,668	*	*	*
.	.	4.g\	tra-	4G\	tra-	4d\	tra-	4d\	-ro	4bn\	à
.	.	.	.	4C/	-ui-	4c\	-ui-	4e\	à	4.cc\	tra-
.	.	8e\	-ui-	.	.	.	.	.	.	.	.
.	.	4.a\	-ar	4F\	-ar	4c\	-ar	4.f\	tra-	.	.
.	.	.	.	.	.	.	.	.	.	8a\	-ui-
.	.	.	.	4D/	dal	4F/	dal	.	.	4dd\	-ar
.	.	8fny\	dal	.	.	.	.	8d\	-ui-	.	.
!	!	!	!	!LO:SIC:v:t=custos E	!	!	!	!	!	!	!
!	!	!	!	!LO:LB:g=original	!	!	!	!	!	!	!
=12-	=12-	=12-	=12-	=12-	=12-	=12-	=12-	=12-	=12-	=12-	=12-
*	*	*	*	*xywh-#258:1505,1825,3320,713	*	*	*	*	*	*	*
4G/	a	2.e\	ve-	4Eny\	ve-	2c\	ve-	2g\	-ar	4r	.
4.cny\	tra-	.	.	8C/	-ro	.	.	.	.	4cc\	à
.	.	.	.	8C/	à	.	.	.	.	.	.
.	.	.	.	4c\	tra-	4C/	-ro	4g\	à	4.cc\	tra-
8c\	-ui-	.	.	.	.	.	.	.	.	.	.
4A/	-ar	4a\	-ro	4F\	-ui-	4c\	à	4.f\	tra-	.	.
.	.	.	.	.	.	.	.	.	.	8a\	-ui-
2d\	dal	2r	.	4B-\	-ar	4.B-\	tra-	.	.	4.b-y\	-ar
.	.	.	.	.	.	.	.	8d\	-ui-	.	.
.	.	.	.	4G\	dal	.	.	4g\	-ar	.	.
.	.	.	.	.	.	8G/	-ui-	.	.	8b-\	dal
2c\	ve-	4r	.	8A\	ve-	4c\	-ar	4e\	dal	4.a\	ve-
.	.	.	.	8G\	.	.	.	.	.	.	.
.	.	4c/	dal	8F\	.	4A/	dal	4.f\	ve-	.	.
.	.	.	.	8E\	.	.	.	.	.	8g/	.
!	!	!	!	!	!	!	!	!	!	!LO:SIC:v:t=custos a	!
!	!	!	!	!	!	!	!	!	!	!LO:LB:g=original	!
=13-	=13-	=13-	=13-	=13-	=13-	=13-	=13-	=13-	=13-	=13-	=13-
*	*	*	*	*	*	*	*	*	*	*xywh-#714:1374,2316,3354,699	*
0F	-ro	1f	ve-	4.D/	.	2d\	ve-	.	.	8a\	.
.	.	.	.	.	.	.	.	8d\	.	8fny/	.
.	.	.	.	.	.	.	.	4.f\	.	2b-\	.
.	.	.	.	8E\	.	.	.	.	.	.	.
.	.	.	.	2F\	.	2c\	.	.	.	.	.
.	.	.	.	.	.	.	.	16e\	.	.	.
.	.	.	.	.	.	.	.	16d\	.	.	.
.	.	.	.	.	.	.	.	4c/	.	4a\	.
.	.	1f	-ro	1BB-	-ro	1B-	-ro	1d	-ro	1b-	-ro
=14-	=14-	=14-	=14-	=14-	=14-	=14-	=14-	=14-	=14-	=14-	=14-
1r	.	4.d\	Per-	4.B-\	Per-	1r	.	4.f\	Per-	1r	.
.	.	8d\	-fi-	8B-\	-fi-	.	.	8f\	-fi-	.	.
.	.	2d\	-da	2B-\	-da	.	.	2f\	-da	.	.
!	!	!	!	!	!	!LO:SIC:v:t=custos d	!	!	!	!	!
!	!	!	!	!	!	!LO:LB:g=original	!	!	!	!	!
*	*	*	*	*	*	*xywh-#410:1356,2274,3386,711	*	*	*	*	*
4.B-\	Per-	4.f\	Per-	1r	.	4.d\	Per-	1r	.	4.b-\	Per-
8B-\	-fi-	8f\	-fi-	.	.	8d\	-fi-	.	.	8b-\	-fi-
2B-\	-da	2f\	-da	.	.	2d\	-da	.	.	2b-\	-da
!	!	!LO:SIC:v:t=custos b-	!	!	!	!	!	!	!	!	!
!	!	!LO:LB:g=original	!	!	!	!	!	!	!	!	!
=15-	=15-	=15-	=15-	=15-	=15-	=15-	=15-	=15-	=15-	=15-	=15-
*	*	*xywh-#106:1128,2357,3345,684	*	*	*	*	*	*	*	*	*
1r	.	1r	.	4.B-\	Per-	4.f\	Per-	4.b-\	Per-	4.dd\	Per-
.	.	.	.	8B-\	-fi-	8f\	-fi-	8b-\	-fi-	8dd\	-fi-
.	.	.	.	2B-\	-da	2f\	-da	2b-\	-da	2dd\	-da
!	!	!	!	!LO:SIC:v:t=custos BB-	!	!	!	!LO:SIC:v:t=custos f	!	!	!
!	!	!	!	!LO:LB:g=original	!	!	!	!LO:LB:g=original	!	!	!
*	*	*	*	*xywh-#258:1513,2384,3250,713	*	*	*	*xywh-#562:1263,2334,3425,691	*	*	*
4.B-\	Per-	4.b-\	Per-	4.BB-/	Per-	4.d\	Per-	4.f\	Per-	4.ff\	Per-
8B-\	-fi-	8b-\	-fi-	8BB-/	-fi-	8d\	-fi-	8f\	-fi-	8ff\	-fi-
2B-\	-da	2b-\	-da	2BB-/	da an-	1d\	da an-	2f\	-da	2ff\	-da
!LO:SIC:v:t=custos G	!	!	!	!	!	!	!	!	!	!	!
!LO:LB:g=original	!	!	!	!	!	!	!	!	!	!	!
=16-	=16-	=16-	=16-	=16-	=16-	=16-	=16-	=16-	=16-	=16-	=16-
*xywh-#24:1065,1818,3373,656	*	*	*	*	*	*	*	*	*	*	*
0r	.	00r	.	2.F\	-cor	.	.	0r	.	0r	.
.	.	.	.	.	.	2.c\	-cor	.	.	.	.
.	.	.	.	4E\	ne	.	.	.	.	.	.
.	.	.	.	4F\	la	.	.	.	.	.	.
.	.	.	.	4D/	mia	4d\	ne	.	.	.	.
.	.	.	.	2.G\	lin-	4.B-\	la	.	.	.	.
.	.	.	.	.	.	8A/	mia	.	.	.	.
=17-	=17-	=17-	=17-	=17-	=17-	=17-	=17-	=17-	=17-	=17-	=17-
2r	.	.	.	.	.	4B-\	lin-	4.d\	Per-	1r	.
.	.	.	.	4F\	gua io	4d\	gua io	.	.	.	.
.	.	.	.	.	.	.	.	8d\	-fi-	.	.
4r	.	.	.	2E-X\	ſpe-	2c\	ſpe-	1g	da an-	.	.
4G/	io	.	.	.	.	.	.	.	.	.	.
2B-\	ſpe-	.	.	1D	-ro	1d	-ro	.	.	4.dd\	Per-
.	.	.	.	.	.	.	.	.	.	8dd\	-fi-
2A/	-ro	.	.	.	.	.	.	2.f\	-cor	2dd\	da an-
=18-	=18-	=18-	=18-	=18-	=18-	=18-	=18-	=18-	=18-	=18-	=18-
0r	.	0r	.	0r	.	00r	.	.	.	2.cc\	-cor
.	.	.	.	.	.	.	.	4e\	ne	.	.
.	.	.	.	.	.	.	.	4f\	la	.	.
.	.	.	.	.	.	.	.	4d\	mia	4dd\	ne
.	.	.	.	.	.	.	.	2.g\	lin-	4.b-\	la
.	.	.	.	.	.	.	.	.	.	8a\	mia
!	!	!	!	!	!	!	!	!	!	!LO:SIC:v:t=custos b-	!
!	!	!	!	!	!	!	!	!	!	!LO:LB:g=original	!
*	*	*	*	*	*	*	*	*	*	*xywh-#714:1397,2848,3331,737	*
.	.	.	.	.	.	.	.	.	.	4b-\	lin-
.	.	.	.	.	.	.	.	4f\	gua io	4dd\	gua io
=19-	=19-	=19-	=19-	=19-	=19-	=19-	=19-	=19-	=19-	=19-	=19-
2r	.	2r	.	2r	.	.	.	2e-X\	ſpe-	2cc\	ſpe-
4r	.	4r	.	4r	.	.	.	2d\	-ro	2dd\	-ro
4A/	Che	4f\	Che	4D/	Che	.	.	.	.	.	.
4.B-\	don-	4.d\	don-	4.G\	don-	.	.	1r	.	2r	.
8A/	-de	8d\	-de	8F\	-de	.	.	.	.	.	.
4B-\	pria	4d\	pria	4G\	pria	.	.	.	.	4r	.
4c\	ti	4f\	ti	4A\	ti	.	.	.	.	4a\	Che
=20-	=20-	=20-	=20-	=20-	=20-	=20-	=20-	=20-	=20-	=20-	=20-
2d\	traſ-	8f\	traſ-	1B-	traſ-	2r	.	2r	.	4.f/	don
.	.	8e\	.	.	.	.	.	.	.	.	.
.	.	8d\	.	.	.	.	.	.	.	.	.
.	.	8c\	.	.	.	.	.	.	.	8e/	de
2d\	-ſe	2B-/	.	.	.	4r	.	4r	.	4f/	pria
.	.	.	.	.	.	4B-\	Che	4d\	Che	4g/	ti
1r	.	1c	ſe el-	0F	-ſe	4.A/	don-	4.f\	don-	1a	traſ-
.	.	.	.	.	.	8G/	-de	8eny\	-de	.	.
.	.	.	.	.	.	4A/	pria	4f\	pria	.	.
.	.	.	.	.	.	4B-\	ti	4g\	ti	.	.
!	!	!	!	!	!	!LO:SIC:v:t=custos c	!	!	!	!	!
!	!	!	!	!	!	!LO:LB:g=original	!	!	!	!	!
=21-	=21-	=21-	=21-	=21-	=21-	=21-	=21-	=21-	=21-	=21-	=21-
*	*	*	*	*	*	*xywh-#410:1405,2806,3352,718	*	*	*	*	*
4r	.	4.A/	-la	.	.	2c\	traſ-	2a\	traſ-	2f/	-ſe
2c\	el-	.	.	.	.	.	.	.	.	.	.
.	.	8G/	ti	.	.	.	.	.	.	.	.
!	!	!	!	!	!	!	!	!LO:SIC:v:t=custos a	!	!	!
!	!	!	!	!	!	!	!	!LO:LB:g=original	!	!	!
*	*	*	*	*	*	*	*	*xywh-#562:1263,2887,3386,698	*	*	*
.	.	2F/	ſpin-	.	.	2A/	ſe el-	2a\	-ſe	4r	.
4.A/	-la	.	.	.	.	.	.	.	.	2cc\	el-
.	.	2c/	-ga	2r	.	4.F/	-la	2r	.	.	.
8G/	ti	.	.	.	.	.	.	.	.	.	.
2F/	ſpin-	.	.	.	.	.	.	.	.	4.a\	-la
.	.	.	.	.	.	8G/	ti	.	.	.	.
!	!	!LO:SIC:v:t=custos d	!	!	!	!	!	!	!	!	!
!	!	!LO:LB:g=original	!	!	!	!	!	!	!	!	!
*	*	*xywh-#106:1101,2945,3421,594	*	*	*	*	*	*	*	*	*
.	.	4r	.	2F\	el-	1A\	ſpin-	2a\	el-	.	.
.	.	.	.	.	.	.	.	.	.	8g/	ti
4D/	-ra	2d\	el-	.	.	.	.	.	.	2f/	ſpin-
!	!	!	!	!LO:SIC:v:t=custos D	!	!	!	!	!	!	!
!	!	!	!	!LO:LB:g=original	!	!	!	!	!	!	!
=22-	=22-	=22-	=22-	=22-	=22-	=22-	=22-	=22-	=22-	=22-	=22-
*	*	*	*	*xywh-#258:1443,2919,3374,690	*	*	*	*	*	*	*
2r	.	.	.	4.D/	-la	.	.	4.f\	-la	.	.
.	.	4.f\	-la	.	.	.	.	.	.	2d/	-ga
.	.	.	.	8C/	ti	.	.	8e\	ti	.	.
2F/	Che	.	.	2BB-/	ſpin-	2B-\	-ga	2d\	ſpin-	.	.
.	.	8e\	ti	.	.	.	.	.	.	.	.
.	.	2d\	ſpin-	.	.	.	.	.	.	4f/	Che
!LO:SIC:v:t=custos B-	!	!	!	!	!	!	!	!	!	!	!
!LO:LB:g=original	!	!	!	!	!	!	!	!	!	!	!
*xywh-#24:1078,2371,3366,608	*	*	*	*	*	*	*	*	*	*	*
4.B-\	don-	.	.	1GG	-ga	2r	.	1d	-ga	4.g/	do(n)-
.	.	4G/	-ga	.	.	.	.	.	.	.	.
8A/	-de	.	.	.	.	.	.	.	.	8f/	-de
4B-\	pria	2r	.	.	.	1G/	Che	.	.	4g/	pria
4c\	ti	.	.	.	.	.	.	.	.	4a\	ti
!	!	!	!	!	!	!	!	!	!	!LO:SIC:v:t=custos b-	!
!	!	!	!	!	!	!	!	!	!	!LO:LB:g=original	!
=23-	=23-	=23-	=23-	=23-	=23-	=23-	=23-	=23-	=23-	=23-	=23-
*	*	*	*	*	*	*	*	*	*	*xywh-#714:1374,3442,3361,684	*
4d\	traſ-	4r	.	4r	.	.	.	1r	.	2b-\	traſ-
4B-\	-ſe	4d\	Che	4GG/	Che	.	.	.	.	.	.
2r	.	4.d\	do(n)-	4.G\	don-	4.B-\	do(n)-	.	.	2b-\	-ſe
.	.	8d\	-de	8F\	-de	8A/	-de	.	.	.	.
1r	.	4d\	pria	4G\	pria	4B-\	pria	2r	.	2r	.
.	.	4f\	ti	4A\	ti	4c\	ti	.	.	.	.
.	.	2f\	traſ-	2B-\	traſ-	2d\	traſ-	4r	.	4r	.
.	.	.	.	.	.	.	.	4d\	el-	2dd\	el-
=24-	=24-	=24-	=24-	=24-	=24-	=24-	=24-	=24-	=24-	=24-	=24-
4r	.	1g	ſe el-	2G\	ſe el-	2d\	-ſe	4.B-/	-la	.	.
2G/	el-	.	.	.	.	.	.	.	.	4.b-\	-la
.	.	.	.	.	.	.	.	8A/	ti	.	.
.	.	.	.	4.E-X\	-la	4r	.	2G/	ſpin-	.	.
.	.	.	.	.	.	.	.	.	.	8a\	ti
4.E-X/	-la	.	.	.	.	2G/	el-	.	.	4g/	ſpin-
.	.	.	.	8D/	ti	.	.	.	.	.	.
.	.	4.e-X\	-la	1C	ſpin-	.	.	1G	-ga	1g	-ga
8D/	ti	.	.	.	.	.	.	.	.	.	.
2C/	ſpin-	.	.	.	.	4.E-X/	-la	.	.	.	.
.	.	8d\	ti	.	.	.	.	.	.	.	.
.	.	2c/	ſpin-	.	.	.	.	.	.	.	.
.	.	.	.	.	.	8D/	ti	.	.	.	.
4G/	-ga	.	.	.	.	4C/	ſpin-	.	.	.	.
=25-	=25-	=25-	=25-	=25-	=25-	=25-	=25-	=25-	=25-	=25-	=25-
4r	.	2d\	-ga	4GG/	-ga	2G/	-ga	4r	.	2b-\	D'u(n)
4B-\	D'un	.	.	4G\	D'un	.	.	4d\	D'un	.	.
4c\	cie-	2r	.	4F\	cie-	2r	.	4f\	cie-	4a\	ciec'-
4c\	co o-	.	.	4Eny\	co o-	.	.	4g\	co o-	4g/	-o-
4F/	-blio	1r	.	4D/	-blio-	1r	.	4a\	-blio	4f/	-blio
4c\	ne'	.	.	4C/	-ne'	.	.	4A/	ne	4e/	ne
!	!	!	!	!LO:SIC:v:t=custos BB-	!	!	!	!	!	!	!
!	!	!	!	!LO:LB:g=original	!	!	!	!	!	!	!
*	*	*	*	*xywh-#258:1451,3447,3320,736	*	*	*	*	*	*	*
4F/	più	.	.	4BB-/	più	.	.	4B-/	più	4d/	più
4A/	pro-	.	.	4AA/	pro-	.	.	4c/	pro-	4c/	pro-
!LO:SIC:v:t=custos D	!	!	!	!	!	!	!	!	!	!	!
!LO:LB:g=original	!	!	!	!	!	!	!	!	!	!	!
=26-	=26-	=26-	=26-	=26-	=26-	=26-	=26-	=26-	=26-	=26-	=26-
*xywh-#24:1071,2875,3386,642	*	*	*	*	*	*	*	*	*	*	*
2D/	-fon-	0r	.	4GG/	-fon-	1r	.	2d\	-fon-	4B-/	-fon-
.	.	.	.	4GG/	di a-	.	.	.	.	4B-/	di a-
!	!	!	!	!	!	!	!	!LO:SIC:v:t=custos d	!	!	!
!	!	!	!	!	!	!	!	!LO:LB:g=original	!	!	!
*	*	*	*	*	*	*	*	*xywh-#562:1287,3371,3333,744	*	*	*
2G/	di a-	.	.	4.GG/	-biſ-	.	.	1d	di a-	4.B-/	-biſ-
.	.	.	.	16FF/	.	.	.	.	.	16A/	.
.	.	.	.	16EE/	.	.	.	.	.	16G/	.
1A	-biſ-	.	.	1DD	.	2r	.	.	.	4F#X/	.
.	.	.	.	.	.	.	.	.	.	2G/	.
.	.	.	.	.	.	4r	.	2D/	-biſ-	.	.
.	.	.	.	.	.	4A/	Che	.	.	4F#X/	.
!	!	!	!	!	!	!LO:SIC:v:t=custos B-	!	!	!	!	!
!	!	!	!	!	!	!LO:LB:g=original	!	!	!	!	!
=27-	=27-	=27-	=27-	=27-	=27-	=27-	=27-	=27-	=27-	=27-	=27-
*	*	*	*	*	*	*xywh-#410:1419,3352,3345,698	*	*	*	*	*
0G	-ſi	2r	.	1GG	-ſi	4.B-\	don-	1D	-ſi	1G	-ſi
.	.	.	.	.	.	8A/	-de	.	.	.	.
.	.	2G/	Che	.	.	4B-\	pria	.	.	.	.
.	.	.	.	.	.	4c\	ti	.	.	.	.
!	!	!LO:SIC:v:t=custos B-	!	!	!	!	!	!	!	!LO:SIC:v:t=custos g	!
!	!	!LO:LB:g=original	!	!	!	!	!	!	!	!LO:LB:g=original	!
*	*	*xywh-#106:1122,3442,3400,635	*	*	*	*	*	*	*	*xywh-#714:1397,3951,3331,699	*
.	.	4.B-/	don-	1GG	Che	2d\	traſ-	2r	.	2r	.
.	.	8A/	-de	.	.	.	.	.	.	.	.
.	.	4B-/	pria	.	.	2d\	-ſe	2d\	Che	2g/	Che
.	.	4c/	ti	.	.	.	.	.	.	.	.
=28-	=28-	=28-	=28-	=28-	=28-	=28-	=28-	=28-	=28-	=28-	=28-
2r	.	4d\	traſ-	4.G\	do(n)-	0r	.	4B-/	do(n)-	4.b-\	do(n)-
.	.	4B-/	-ſe	.	.	.	.	4d\	-de	.	.
.	.	.	.	8F\	-de	.	.	.	.	8a\	-de
2d\	Che	2r	.	4G\	pria	.	.	4d\	pria	4b-\	pria
.	.	.	.	4A\	ti	.	.	4f\	ti	4cc\	ti
4.d\	don-	1r	.	1B-	traſ-	.	.	1f	traſ-	1dd	traſ-
8c\	-de	.	.	.	.	.	.	.	.	.	.
4d\	pria	.	.	.	.	.	.	.	.	.	.
4e\	ti	.	.	.	.	.	.	.	.	.	.
=29-	=29-	=29-	=29-	=29-	=29-	=29-	=29-	=29-	=29-	=29-	=29-
4f\	traſ-	2r	.	2B-\	ſe el-	4r	.	1d	-ſe	2dd\	ſe e-
4f\	-ſe	.	.	.	.	2d\	el-	.	.	.	.
2r	.	4r	.	4.G\	-la	.	.	.	.	4.b-\	-lla
.	.	2g\	el-	.	.	4.B-\	-la	.	.	.	.
.	.	.	.	8F\	ti	.	.	.	.	8a\	ti
2r	.	.	.	2E-X\	ſpin-	.	.	4r	.	2g/	ſpin-
.	.	.	.	.	.	8A/	ti	.	.	.	.
.	.	4.e-X\	-la	.	.	2G/	ſpin-	4g\	el-	.	.
2c\	el-	.	.	2C/	-ga	.	.	4.e-X\	-la	4g/	-ga
.	.	8d\	ti	.	.	.	.	.	.	.	.
.	.	4c/	ſpin-	.	.	4G/	-ga	.	.	2cc\	el-
.	.	.	.	.	.	.	.	8d\	ti	.	.
=30-	=30-	=30-	=30-	=30-	=30-	=30-	=30-	=30-	=30-	=30-	=30-
4.A/	-la	4c/	-ga	2F\	el-	4A/	el-	2c/	ſpin-	.	.
.	.	2f\	el-	.	.	4.F/	-la	.	.	4.a\	-la
8G/	ti	.	.	.	.	.	.	.	.	.	.
1F	ſpin-	.	.	4.D/	-la	.	.	4.d\	-ga	.	.
.	.	.	.	.	.	8G/	ti	.	.	8g/	ti
.	.	4.d\	-la	.	.	4A/	ſpin-	.	.	2f/	ſpin-
.	.	.	.	8C/	ti	.	.	8eny\	.	.	.
!	!	!	!	!LO:SIC:v:t=custos BB-	!	!	!	!	!	!	!
!	!	!	!	!LO:LB:g=original	!	!	!	!	!	!	!
*	*	*	*	*xywh-#258:1435,3982,3366,705	*	*	*	*	*	*	*
.	.	.	.	2BB-/	ſpin-	2d\	-ga	2f\	.	.	.
.	.	8c/	ti	.	.	.	.	.	.	.	.
.	.	2B-/	ſpin-	.	.	.	.	.	.	2d/	-ga
2G/	-ga	.	.	2GG/	-ga	4r	.	4r	.	.	.
.	.	4G/	-ga	.	.	4g\	D'un	4b-\	D'un	4dd\	D'un
=31-	=31-	=31-	=31-	=31-	=31-	=31-	=31-	=31-	=31-	=31-	=31-
0r	.	0r	.	00r	.	4f\	cie-	4a\	cie-	4dd\	cie-
.	.	.	.	.	.	4e\	co ob-	4g\	co o-	4cc\	co o-
!	!	!	!	!	!	!	!	!LO:SIC:v:t=custos f	!	!	!
!	!	!	!	!	!	!	!	!LO:LB:g=original	!	!	!
*	*	*	*	*	*	*	*	*xywh-#562:1302,3954,3325,698	*	*	*
.	.	.	.	.	.	4d\	-lio-	4f\	-blio	1.dd	-blio
.	.	.	.	.	.	4c\	-ne	4e\	ne	.	.
!	!	!	!	!	!	!LO:SIC:v:t=custos B-	!	!	!	!	!
!	!	!	!	!	!	!LO:LB:g=original	!	!	!	!	!
*	*	*	*	*	*	*xywh-#410:1349,3891,3435,718	*	*	*	*	*
.	.	.	.	.	.	4B-\	più	4d\	piu	.	.
.	.	.	.	.	.	4A/	pro-	4c/	pro-	.	.
.	.	.	.	.	.	4G/	-fon-	4B-/	-fon-	.	.
.	.	.	.	.	.	4G/	di a-	4B-/	di a-	.	.
=32-	=32-	=32-	=32-	=32-	=32-	=32-	=32-	=32-	=32-	=32-	=32-
4r	.	4r	.	.	.	2G/	-biſ-	4.B-/	-biſ-	1r	.
4g\	D'un	4b-\	D'un	.	.	.	.	.	.	.	.
.	.	.	.	.	.	.	.	8c/	.	.	.
!LO:SIC:v:t=custos f	!	!LO:SIC:v:t=custos a	!	!	!	!	!	!	!	!	!
!LO:LB:g=original	!	!LO:LB:g=original	!	!	!	!	!	!	!	!	!
*xywh-#24:1058,3415,3414,635	*	*xywh-#106:1108,3954,3400,718	*	*	*	*	*	*	*	*	*
4f\	cie-	4a\	cie-	.	.	1D	-ſi	2.d\	.	.	.
4e\	co o-	4g\	co o-	.	.	.	.	.	.	.	.
4d\	-blio	4f\	-blio	.	.	.	.	.	.	2r	.
4c\	ne	4eny\	ne	.	.	.	.	4e\	.	.	.
4B-\	piu	4d\	piu	.	.	2r	.	2f\	.	2b-\	ne'
4A/	pro-	4c/	pro-	.	.	.	.	.	.	.	.
!	!	!	!	!	!	!	!	!	!	!LO:SIC:v:t=custos b-	!
!	!	!	!	!	!	!	!	!	!	!LO:LB:g=original	!
=33-	=33-	=33-	=33-	=33-	=33-	=33-	=33-	=33-	=33-	=33-	=33-
*	*	*	*	*	*	*	*	*	*	*xywh-#714:1465,4484,3247,714	*
4G/	-fon-	4B-/	-fon-	0r	.	2d\	ne	1g	-ſi	4b-\	più
4G/	di a-	4B-/	di a-	.	.	.	.	.	.	4b-\	pro-
4.G/	-biſ-	4.B-/	-biſ-	.	.	4d\	piu	.	.	4.b-\	-fon
.	.	.	.	.	.	4d\	pro-	.	.	.	.
16F/	.	8c/	.	.	.	.	.	.	.	16a\	.
16Eny/	.	.	.	.	.	.	.	.	.	16g\	.
1D	.	1d	.	.	.	4d\	-fon-	1r	.	4f#X/	.
.	.	.	.	.	.	4B-\	di a-	.	.	2g/	di a-
.	.	.	.	.	.	2A/	-biſ-	.	.	.	.
.	.	.	.	.	.	.	.	.	.	4f#X/	-biſ-
=34-	=34-	=34-	=34-	=34-	=34-	=34-	=34-	=34-	=34-	=34-	=34-
2G/	-ſi	2d\	-ſi	4r	.	2B-\	-ſi	4r	.	4g/	-ſi
.	.	.	.	4G\	D'un	.	.	4B-/	D'un	4b-\	D un
2r	.	2r	.	4F\	cie-	4r	.	4c/	cie-	4a\	cie-
.	.	.	.	4Eny\	co o-	4G/	D un	4c/	co o-	4g/	co ob-
2F/	ne	2r	.	4D/	-blio	4A/	cie-	2d\	-blio	4fny/	-lio
.	.	.	.	4C/	ne'	4A/	co o-	.	.	4e/	ne
4F/	piu	2f\	ne	4BB-/	più	4B-\	-blio-	2.d\	ne	4d/	piu
4F/	pro-	.	.	4AA/	pro-	4c\	-ne	.	.	4c/	pro-
!	!	!	!	!	!	!LO:SIC:v:t=custos d	!	!	!	!	!
!	!	!	!	!	!	!LO:LB:g=original	!	!	!	!	!
=35-	=35-	=35-	=35-	=35-	=35-	=35-	=35-	=35-	=35-	=35-	=35-
*	*	*	*	*	*	*xywh-#410:1343,4431,3414,711	*	*	*	*	*
2B-\	-fon-	4g\	piu	4GG/	-fon-	4d\	piu	.	.	4B-/	-fon-
.	.	4G/	pro-	4GG/	di a-	4d\	pro-	4.g\	piu	4b-\	di a-
2G/	di a-	4.B-/	-fon-	4.GG/	-biſ-	4D/	-fon-	.	.	4.b-\	-biſ-
.	.	.	.	.	.	.	.	8G/	pro-	.	.
.	.	.	.	.	.	4D/	di a-	2d\	-fon-	.	.
.	.	8c/	di a-	16FF/	.	.	.	.	.	16a\	.
.	.	.	.	16EE/	.	.	.	.	.	16g\	.
!	!	!LO:SIC:v:t=custos d	!	!	!	!	!	!	!	!	!
!	!	!LO:LB:g=original	!	!	!	!	!	!	!	!	!
*	*	*xywh-#106:1087,4500,3456,746	*	*	*	*	*	*	*	*	*
1A	-biſ-	4.d\	-biſ-	1DD	-ſi.	1D	-biſ-	.	.	4f#X/	.
.	.	.	.	.	.	.	.	4d\	di a-	2g/	.
.	.	16c/	.	.	.	.	.	.	.	.	.
.	.	16B-/	.	.	.	.	.	.	.	.	.
.	.	2A/	.	.	.	.	.	2d\	-biſ-	.	.
.	.	.	.	.	.	.	.	.	.	4f#X/	.
=36-	=36-	=36-	=36-	=36-	=36-	=36-	=36-	=36-	=36-	=36-	=36-
!	!	!LO:N:acc=#	!	!	!	!	!	!	!	!	!
!LO:N:vis=00/	!	!LO:N:vis=00/	!	!LO:N:vis=00/	!	!LO:N:vis=00/	!	!LO:N:vis=00\	!	!LO:N:vis=00\	!
0G	-ſi.	0Bn	-ſi.	0GG	.	0D	-ſi.	0d	-ſi.	0g	-ſi.
=||	=||	=||	=||	=||	=||	=||	=||	=||	=||	=||	=||
*-	*-	*-	*-	*-	*-	*-	*-	*-	*-	*-	*-
!!!system-decoration: [(s1,s2,s3,s4,s5,s6)]
!!!ENC: Mateusz Solarz
!!!END: 2022-06-15
!!!ENC: Urszula Świątek
!!!END: 2022-07-25
!!!YEC: Copyright 2022 Narodowy Instytut Fryderyka Chopina (https://polishscores.org)
!!!YEM: License CC-BY-4.0 (https://creativecommons.org/licenses/by/4.0)
!!!IIIF: https://repozytorium.nifc.pl/islandora/object/pl-gd%3A57883/datastream/IIIF/view
!!!ENC-iiif: Jolanta Bujas-Poniatowska
!!!END-iiif: 2022-09-23
